X: 4
T: Drowsy Maggie
R: reel
M: 4/4
L: 1/8
K: Edor
|:"Em"E2BE dEBE   |"Em"E2BE "D"AFDF |"Em"E2BE dEBE   |1"G"BABc "D"dAFD :|2 "G"BABc "A7"dAFA  |]
|:"D"d2fd "A"c2ec |"D"defg afge     |"D"d2fd "A"c2ec |"G"BABc "A7"dAFA  |
|"D"d2fd "A"c2ec  |"D"defg afge     |"A"afge "D"fdec |1"G"BABc "D"dAFD :|2"G"BABc "A7/E"dAFA |]
